X: 25072
T: Maids Of Flanders
R: strathspey
M: 4/4
K: Amajor
|:a|A<A c>e a2 e>a|(3gfe f>d g>e d<B|AA c>e a2 e.a|(3gfe d>B e<A A:|
B|(3 cBA e>c f>d a>f|e<c a>c B<G G>B|(3cBA e>c f>d a>f|e<a (3Bcd e<A A>B|
(3cBA e>c f>d a>f|e<c a>c B<G G>B|(3ABc B>d c>e a2|e<a (3Bcd e<A A||

